X:6
T:George Green's College Hornpipe
R:hornpipe
H:Used as tune for Red Stags Morris dance "Mister Dolly"
C:Traditional.
M:4/4
L:1/8
K:G
((3DEF) | G>BA>G F2 ((3DEF) | G>BA>G F2 d2 | c>BA>G F>DE>F |1 A>GF>E D2 :|
|2 G2 B2 G2 A2 || B2 d2 B2 d2 | e>dc>B c4 | c>BA>G F>DE>F | A>GF>E D2 ((3DEF) |
 G>BA>G F2 ((3DEF) | G>BA>G F2 d2 | c>BA>G F>DE>F | G2 B2 G2 |]
